src/24/actions/im-twitter.svg

<svg xmlns="http://www.w3.org/2000/svg" viewBox="0 0 24 24">
  <defs id="defs3051">
    <style type="text/css" id="current-color-scheme">
      .ColorScheme-Text {
        color:#5d656b;
      }
      </style>
  </defs>
 <path style="fill:currentColor;fill-opacity:1;stroke:none" 
     d="M 15.078125 5.5 C 13.265325 5.5 11.794922 6.96874 11.794922 8.78125 C 11.794922 9.03843 11.823006 9.2891269 11.878906 9.5292969 C 9.1508706 9.3924669 6.7322015 8.0870925 5.1132812 6.1015625 C 4.8306713 6.5862225 4.6699219 7.14857 4.6699219 7.75 C 4.6699219 8.88867 5.2480864 9.8939017 6.1289062 10.482422 C 5.5908064 10.465722 5.0851281 10.318036 4.6425781 10.072266 C 4.6422781 10.086266 4.6425781 10.099281 4.6425781 10.113281 C 4.6425781 11.70342 5.7738206 13.028468 7.2753906 13.330078 C 7.0000106 13.405178 6.7095563 13.445313 6.4101562 13.445312 C 6.1986662 13.445312 5.9934186 13.424719 5.7929688 13.386719 C 6.2107086 14.690539 7.422955 15.639646 8.859375 15.666016 C 7.735955 16.546356 6.3211331 17.070314 4.7832031 17.070312 C 4.5182331 17.070306 4.25675 17.055691 4 17.025391 C 5.45265 17.956581 7.17753 18.5 9.03125 18.5 C 15.06897 18.5 18.371094 13.499189 18.371094 9.1621094 C 18.371094 9.0198594 18.366328 8.8790414 18.361328 8.7382812 C 19.002772 8.2755412 19.55995 7.6972525 20 7.0390625 C 19.41141 7.3000625 18.779134 7.4753275 18.115234 7.5546875 C 18.792844 7.1485175 19.311541 6.5066344 19.556641 5.7402344 C 18.922361 6.1163744 18.220386 6.3899994 17.472656 6.5371094 C 16.873966 5.8992994 16.022235 5.5 15.078125 5.5 z "
     class="ColorScheme-Text"
     />
</svg>

<svg xmlns="http://www.w3.org/2000/svg" viewBox="0 0 24 24"><path d="M15.078 5.5a3.282 3.282 0 0 0-3.2 4.03 9.318 9.318 0 0 1-6.765-3.428A3.259 3.259 0 0 0 4.67 7.75a3.28 3.28 0 0 0 1.459 2.732 3.264 3.264 0 0 1-1.486-.41v.041a3.283 3.283 0 0 0 2.632 3.217 3.286 3.286 0 0 1-1.482.057 3.286 3.286 0 0 0 3.066 2.279 6.584 6.584 0 0 1-4.076 1.404c-.265 0-.526-.014-.783-.045A9.29 9.29 0 0 0 9.031 18.5c6.038 0 9.34-5 9.34-9.338 0-.142-.005-.283-.01-.424A6.671 6.671 0 0 0 20 7.04a6.56 6.56 0 0 1-1.885.516 3.286 3.286 0 0 0 1.442-1.815 6.569 6.569 0 0 1-2.084.797A3.276 3.276 0 0 0 15.078 5.5z" fill="currentColor" color="#5d656b"/></svg>
